images/svg/icon-phone.svg

<svg width="10" height="15" viewBox="0 0 10 15" fill="none" xmlns="http://www.w3.org/2000/svg">
<path d="M8.5 0H1.5C0.672848 0 0 0.628103 0 1.40025V13.5357C0 14.3079 0.672848 14.936 1.5 14.936H8.5C9.32715 14.936 10 14.3079 10 13.5357V1.40025C10 0.628103 9.32715 0 8.5 0ZM1.5 0.933498H8.5C8.77588 0.933498 9 1.14271 9 1.40025V11.202H1V1.40025C1 1.14271 1.22412 0.933498 1.5 0.933498ZM8.5 14.0025H1.5C1.22412 14.0025 1 13.7933 1 13.5357V12.1355H9V13.5357C9 13.7933 8.77588 14.0025 8.5 14.0025Z" fill="#757575"/>
<path d="M2.35355 12.7389C2.54882 12.9213 2.54882 13.2169 2.35355 13.3992C2.15828 13.5816 1.84172 13.5816 1.64645 13.3992C1.45118 13.2169 1.45118 12.9213 1.64645 12.7389C1.84172 12.5566 2.15828 12.5566 2.35355 12.7389Z" fill="#757575"/>
</svg>

<svg width="10" height="15" fill="none" xmlns="http://www.w3.org/2000/svg">
  <path d="M8.5 0h-7C.67 0 0 .63 0 1.4v12.14c0 .77.67 1.4 1.5 1.4h7c.83 0 1.5-.63 1.5-1.4V1.4C10 .63 9.33 0 8.5 0zm-7 .93h7c.28 0 .5.21.5.47v9.8H1V1.4c0-.26.22-.47.5-.47zM8.5 14h-7c-.28 0-.5-.2-.5-.46v-1.4h8v1.4c0 .25-.22.46-.5.46z" fill="#757575"/>
  <path d="M2.35 12.74c.2.18.2.48 0 .66a.53.53 0 01-.7 0 .45.45 0 010-.66c.2-.18.5-.18.7 0z" fill="#757575"/>
</svg>
